src/assets/svg/icons/fa/nuevos/classic/duotone/truck-front classic duotone.svg

<svg xmlns="http://www.w3.org/2000/svg" viewBox="0 0 512 512"><!--! Font Awesome Pro 6.4.0 by @fontawesome - https://fontawesome.com License - https://fontawesome.com/license (Commercial License) Copyright 2023 Fonticons, Inc. --><defs><style>.fa-secondary{opacity:.4}</style></defs><path class="fa-primary" d="M80 0C35.8 0 0 35.8 0 80V368c0 44.2 35.8 80 80 80H432c44.2 0 80-35.8 80-80V80c0-44.2-35.8-80-80-80H80zm32 224l17.9-71.8c3.6-14.2 16.4-24.2 31-24.2H351c14.7 0 27.5 10 31 24.2L400 224H112zM64 320a32 32 0 1 1 64 0 32 32 0 1 1 -64 0zm352-32a32 32 0 1 1 0 64 32 32 0 1 1 0-64z"/><path class="fa-secondary" d="M112 224l17.9-71.8c3.6-14.2 16.4-24.2 31-24.2H351c14.7 0 27.5 10 31 24.2L400 224H112zM32 480V432c13.4 10 30 16 48 16h48v32c0 17.7-14.3 32-32 32H64c-17.7 0-32-14.3-32-32zm352 0V448h48c18 0 34.6-6 48-16v48c0 17.7-14.3 32-32 32H416c-17.7 0-32-14.3-32-32z"/></svg>

<svg xmlns="http://www.w3.org/2000/svg" viewBox="0 0 512 512"><defs><style>.fa-secondary{opacity:.4}</style></defs><path class="fa-primary" d="M432 0C476.2 0 512 35.82 512 80V368C512 412.2 476.2 448 432 448H80C35.82 448 0 412.2 0 368V80C0 35.82 35.82 0 80 0H432zM400 224L382.1 152.2C378.5 137.1 365.7 128 351 128H160.1C146.3 128 133.5 137.1 129.9 152.2L112 224H400zM96 288C78.33 288 64 302.3 64 320C64 337.7 78.33 352 96 352C113.7 352 128 337.7 128 320C128 302.3 113.7 288 96 288zM416 352C433.7 352 448 337.7 448 320C448 302.3 433.7 288 416 288C398.3 288 384 302.3 384 320C384 337.7 398.3 352 416 352z"/><path class="fa-secondary" d="M112 224L129.9 152.2C133.5 137.1 146.3 128 160.1 128H351C365.7 128 378.5 137.1 382.1 152.2L400 224H112zM32 480V432C45.37 442 61.99 448 80 448H128V480C128 497.7 113.7 512 96 512H64C46.33 512 32 497.7 32 480zM384 480V448H432C450 448 466.6 442 480 432V480C480 497.7 465.7 512 448 512H416C398.3 512 384 497.7 384 480z"/></svg>
